X:18672
T:When the Cock Crows It Is Day
M:6/8
L:1/8
R:jig
Z:From Tommy Keane & Jacqueline McCarthy, "The Wind Among the Reeds"
K:G
D|GAB AGE|c2 E c2 D|GAB AGE|A2 D A2 D|GAB AGE|c2 d (3efg e|dBG AGE|1 G3
G2:|2 G3 GBd||
g2 e dBG|c4 z d|(3efg e dBG|A3 ABd|g2 e dBG|c2 d (3efg e|dBG AGE|1 G3 GB
d:|2
G3||


